svgs/sharp-regular/helmet-un.svg

<svg xmlns="http://www.w3.org/2000/svg" viewBox="0 0 512 512"><!--! Font Awesome Pro 6.6.0 by @fontawesome - https://fontawesome.com License - https://fontawesome.com/license (Commercial License) Copyright 2024 Fonticons, Inc. --><path d="M240 48c106 0 192 86 192 192l-176 0-15.5 0-6.4 14.1L196.9 336 48 336l0-96C48 134 134 48 240 48zm80 372.7l-77.7-68.6L271.5 288l48.5 0 0 132.7zm48 42.4L368 288l120 0 24 0 0-48-24 0-8 0C480 107.5 372.5 0 240 0S0 107.5 0 240L0 360l0 24 24 0 181.9 0 2.3 2 136 120 6.8 6 9.1 0 96 0 24 0 0-48-24 0-86.9 0-1.1-.9zM160 112l0-16-32 0 0 16 0 64c0 26.5 21.5 48 48 48s48-21.5 48-48l0-64 0-16-32 0 0 16 0 64c0 8.8-7.2 16-16 16s-16-7.2-16-16l0-64zM272 96l-16 0 0 16 0 96 0 16 32 0 0-16 0-43.6 31.1 51.8 4.7 7.8 9.1 0 3.2 0 16 0 0-16 0-96 0-16-32 0 0 16 0 43.6-31.1-51.8L284.3 96l-9.1 0L272 96z"/></svg>

<svg xmlns="http://www.w3.org/2000/svg" viewBox="0 0 512 512"><!--! Font Awesome Pro 6.4.0 by @fontawesome - https://fontawesome.com License - https://fontawesome.com/license (Commercial License) Copyright 2023 Fonticons, Inc. --><path d="M240 48c106 0 192 86 192 192H256 240.5l-6.4 14.1L196.9 336H48V240C48 134 134 48 240 48zm80 372.7l-77.7-68.6L271.5 288H320V420.7zm48 42.4V288H488h24V240H488h-8C480 107.5 372.5 0 240 0S0 107.5 0 240V360v24H24 205.9l2.3 2 136 120 6.8 6H360h96 24V464H456 369.1l-1.1-.9zM160 112V96H128v16 64c0 26.5 21.5 48 48 48s48-21.5 48-48V112 96H192v16 64c0 8.8-7.2 16-16 16s-16-7.2-16-16V112zM272 96H256v16 96 16h32V208 164.4l31.1 51.8 4.7 7.8h9.1H336h16V208 112 96H320v16 43.6l-31.1-51.8L284.3 96h-9.1H272z"/></svg>
